src/assets/moving-category.svg

<svg width="70" height="81" viewBox="0 0 70 81" fill="none" xmlns="http://www.w3.org/2000/svg">
<path d="M57.8843 75.3469H63.2689C65.0364 75.3173 65.0391 72.6842 63.2689 72.6546H57.8843C56.1168 72.6829 56.1141 75.3173 57.8843 75.3469Z" fill="#024EC9"/>
<path d="M64.6154 29.5777H48.4615C47.4762 29.5777 46.5635 29.8631 45.7692 30.3261V13.4238C45.7692 10.4542 43.3542 8.03922 40.3846 8.03922H16.1538C13.1842 8.03922 10.7692 10.4542 10.7692 13.4238V36.3084C10.7692 37.2925 11.0546 38.2052 11.5177 39.0008H5.38462C2.415 39.0008 0 41.4158 0 44.3854V75.3469C0 78.3165 2.415 80.7315 5.38462 80.7315H40.3846C42 80.7315 43.435 80.0006 44.4231 78.8698C45.4112 80.0006 46.8462 80.7315 48.4615 80.7315H64.6154C67.585 80.7315 70 78.3165 70 75.3469V59.1931C70 57.5777 69.2704 56.1413 68.1396 55.1546C68.7211 54.6542 69.1881 54.0345 69.5091 53.3378C69.8301 52.641 69.9975 51.8833 70 51.1161V34.9623C70 31.9927 67.585 29.5777 64.6154 29.5777ZM24.2308 10.7315H32.3077V14.77C32.3077 15.5104 31.7033 16.1161 30.9615 16.1161H25.5769C24.8352 16.1161 24.2308 15.5104 24.2308 14.77V10.7315ZM29.6154 78.0392H16.1538V72.6546C16.1538 71.9115 16.7583 71.3084 17.5 71.3084H28.2692C29.011 71.3084 29.6154 71.9115 29.6154 72.6546V78.0392ZM43.0769 75.3469C43.0769 76.8304 41.8694 78.0392 40.3846 78.0392H32.3077V72.6546C32.3077 70.4267 30.4958 68.6161 28.2692 68.6161H17.5C15.2735 68.6161 13.4615 70.4267 13.4615 72.6546V78.0392H5.38462C3.89981 78.0392 2.69231 76.8304 2.69231 75.3469V52.4623H43.0769V75.3469ZM43.0769 49.77H2.69231V44.3854C2.69231 42.9006 3.89981 41.6931 5.38462 41.6931H40.3846C41.8694 41.6931 43.0769 42.9006 43.0769 44.3854V49.77ZM24.2308 39.0008V34.9623C24.2308 34.2192 24.8352 33.6161 25.5769 33.6161H30.9615C31.7033 33.6161 32.3077 34.2192 32.3077 34.9623V39.0008H24.2308ZM43.0769 36.3084C43.0769 37.7933 41.8694 39.0008 40.3846 39.0008H35V34.9623C35 32.7344 33.1881 30.9238 30.9615 30.9238H25.5769C23.3504 30.9238 21.5385 32.7344 21.5385 34.9623V39.0008H16.1538C14.669 39.0008 13.4615 37.7933 13.4615 36.3084V13.4238C13.4615 11.939 14.669 10.7315 16.1538 10.7315H21.5385V14.77C21.5385 16.9965 23.3504 18.8084 25.5769 18.8084H30.9615C33.1881 18.8084 35 16.9965 35 14.77V10.7315H40.3846C41.8694 10.7315 43.0769 11.939 43.0769 13.4238V36.3084ZM67.3077 75.3469C67.3077 76.8304 66.1002 78.0392 64.6154 78.0392H48.4615C46.9767 78.0392 45.7692 76.8304 45.7692 75.3469V63.2315H67.3077V75.3469ZM67.3077 60.5392H45.7692V59.1931C45.7692 57.7083 46.9767 56.5008 48.4615 56.5008H64.6154C66.1002 56.5008 67.3077 57.7083 67.3077 59.1931V60.5392ZM67.3077 51.1161C67.3077 52.5996 66.1002 53.8084 64.6154 53.8084H48.4615C46.9767 53.8084 45.7692 52.5996 45.7692 51.1161V39.0008H67.3077V51.1161ZM67.3077 36.3084H45.7692V34.9623C45.7692 33.4775 46.9767 32.27 48.4615 32.27H64.6154C66.1002 32.27 67.3077 33.4775 67.3077 34.9623V36.3084Z" fill="#024EC9"/>
<path d="M57.8845 51.1162H63.2691C65.0366 51.0865 65.0393 48.4535 63.2691 48.4238H57.8845C56.117 48.4521 56.1143 51.0865 57.8845 51.1162ZM28.2691 5.38462C28.6262 5.38462 28.9686 5.24279 29.221 4.99034C29.4735 4.73788 29.6153 4.39548 29.6153 4.03846V1.34615C29.6153 0.989132 29.4735 0.646732 29.221 0.394279C28.9686 0.141826 28.6262 0 28.2691 0C27.9121 0 27.5697 0.141826 27.3173 0.394279C27.0648 0.646732 26.923 0.989132 26.923 1.34615V4.03846C26.923 4.39548 27.0648 4.73788 27.3173 4.99034C27.5697 5.24279 27.9121 5.38462 28.2691 5.38462ZM21.1951 5.23115C21.8116 6.88827 24.3182 5.96077 23.7245 4.31038L22.8024 1.77962C22.7445 1.61028 22.6533 1.4542 22.5343 1.32051C22.4153 1.18682 22.2709 1.07819 22.1094 1.00099C21.948 0.923795 21.7727 0.879569 21.5939 0.870905C21.4152 0.86224 21.2365 0.88931 21.0683 0.950531C20.9001 1.01175 20.7458 1.1059 20.6145 1.22745C20.4831 1.34901 20.3773 1.49554 20.3033 1.65848C20.2292 1.82142 20.1884 1.99748 20.1832 2.17638C20.178 2.35528 20.2085 2.53342 20.273 2.70038L21.1951 5.23115ZM33.6201 6.03481C33.9552 6.15625 34.3248 6.13984 34.6478 5.98919C34.9708 5.83853 35.2209 5.56593 35.3432 5.23115L36.2639 2.70038C36.3328 2.53258 36.3671 2.35259 36.3647 2.17121C36.3622 1.98983 36.3232 1.81082 36.2499 1.64491C36.1765 1.47901 36.0704 1.32964 35.9379 1.20577C35.8054 1.0819 35.6492 0.98609 35.4787 0.924093C35.3083 0.862096 35.127 0.835191 34.9459 0.844993C34.7648 0.854795 34.5875 0.901102 34.4247 0.981134C34.2619 1.06116 34.117 1.17327 33.9986 1.31071C33.8802 1.44816 33.7909 1.60811 33.7359 1.78096L32.8138 4.31173C32.6924 4.64699 32.709 5.01671 32.8599 5.33975C33.0108 5.6628 33.2851 5.91277 33.6201 6.03481ZM56.5384 26.8854C56.8954 26.8854 57.2378 26.7436 57.4902 26.4911C57.7427 26.2387 57.8845 25.8963 57.8845 25.5392V22.8469C57.8845 22.4899 57.7427 22.1475 57.4902 21.895C57.2378 21.6426 56.8954 21.5008 56.5384 21.5008C56.1813 21.5008 55.8389 21.6426 55.5865 21.895C55.334 22.1475 55.1922 22.4899 55.1922 22.8469V25.5392C55.1922 25.8963 55.334 26.2387 55.5865 26.4911C55.8389 26.7436 56.1813 26.8854 56.5384 26.8854ZM49.4643 26.7292C50.0809 28.3877 52.5874 27.4602 51.9938 25.8098L51.0716 23.279C51.0137 23.1097 50.9226 22.9536 50.8036 22.8199C50.6846 22.6862 50.5401 22.5776 50.3787 22.5004C50.2172 22.4232 50.0419 22.379 49.8632 22.3703C49.6844 22.3617 49.5057 22.3887 49.3375 22.45C49.1694 22.5112 49.0151 22.6053 48.8837 22.7269C48.7523 22.8484 48.6465 22.995 48.5725 23.1579C48.4984 23.3208 48.4576 23.4969 48.4524 23.6758C48.4472 23.8547 48.4777 24.0328 48.5422 24.1998L49.4643 26.7292ZM61.8893 27.5342C62.2246 27.6556 62.5943 27.639 62.9174 27.4881C63.2404 27.3372 63.4904 27.0643 63.6124 26.7292L64.5332 24.1998C64.6012 24.0322 64.6348 23.8526 64.6318 23.6717C64.6289 23.4909 64.5895 23.3124 64.5161 23.1471C64.4427 22.9818 64.3367 22.833 64.2045 22.7096C64.0722 22.5861 63.9165 22.4906 63.7465 22.4287C63.5766 22.3668 63.3959 22.3398 63.2152 22.3493C63.0346 22.3587 62.8577 22.4045 62.6952 22.4839C62.5326 22.5633 62.3877 22.6746 62.2692 22.8112C62.1506 22.9478 62.0608 23.1069 62.0051 23.279L61.083 25.8098C60.9612 26.1452 60.9776 26.5153 61.1285 26.8387C61.2795 27.162 61.554 27.4122 61.8893 27.5342Z" fill="#024EC9"/>
</svg>

<svg width="70" height="81" fill="none" xmlns="http://www.w3.org/2000/svg"><path d="M57.884 75.347h5.385c1.767-.03 1.77-2.663 0-2.692h-5.385c-1.767.028-1.77 2.662 0 2.692z" fill="#024EC9"/><path d="M64.615 29.578H48.462c-.986 0-1.899.285-2.693.748V13.424a5.39 5.39 0 00-5.384-5.385H16.154a5.39 5.39 0 00-5.385 5.385v22.884c0 .984.286 1.897.749 2.693H5.385A5.39 5.39 0 000 44.385v30.962a5.39 5.39 0 005.385 5.385h35c1.615 0 3.05-.731 4.038-1.862.988 1.13 2.423 1.861 4.038 1.861h16.154A5.39 5.39 0 0070 75.347V59.193c0-1.615-.73-3.052-1.86-4.038A5.351 5.351 0 0070 51.116V34.962a5.39 5.39 0 00-5.385-5.384zM24.231 10.732h8.077v4.038a1.35 1.35 0 01-1.346 1.346h-5.385a1.35 1.35 0 01-1.346-1.346v-4.038zm5.384 67.307H16.154v-5.384c0-.743.604-1.347 1.346-1.347h10.77c.741 0 1.345.603 1.345 1.347v5.384zm13.462-2.692a2.696 2.696 0 01-2.692 2.692h-8.077v-5.384a4.043 4.043 0 00-4.039-4.039H17.5a4.043 4.043 0 00-4.039 4.039v5.384H5.385a2.696 2.696 0 01-2.693-2.692V52.462h40.385v22.885zm0-25.577H2.692v-5.385a2.695 2.695 0 012.693-2.692h35a2.695 2.695 0 012.692 2.692v5.385zM24.23 39v-4.038c0-.743.604-1.346 1.346-1.346h5.384c.742 0 1.347.603 1.347 1.346v4.039H24.23zm18.846-2.692a2.695 2.695 0 01-2.692 2.693H35v-4.039a4.043 4.043 0 00-4.038-4.038h-5.385a4.043 4.043 0 00-4.039 4.038v4.039h-5.384a2.695 2.695 0 01-2.693-2.693V13.424a2.695 2.695 0 012.693-2.692h5.384v4.038a4.043 4.043 0 004.039 4.038h5.384A4.043 4.043 0 0035 14.77v-4.038h5.385a2.695 2.695 0 012.692 2.692v22.884zm24.23 39.039a2.696 2.696 0 01-2.692 2.692H48.462a2.696 2.696 0 01-2.693-2.692V63.232h21.539v12.115zm0-14.808H45.77v-1.346a2.695 2.695 0 012.693-2.692h16.153a2.695 2.695 0 012.693 2.692v1.346zm0-9.423a2.696 2.696 0 01-2.692 2.692H48.462a2.696 2.696 0 01-2.693-2.692V39.001h21.539v12.115zm0-14.808H45.77v-1.346a2.695 2.695 0 012.693-2.692h16.153a2.695 2.695 0 012.693 2.692v1.346z" fill="#024EC9"/><path d="M57.885 51.116h5.384c1.768-.03 1.77-2.663 0-2.692h-5.384c-1.768.028-1.77 2.663 0 2.692zM28.269 5.385a1.346 1.346 0 001.346-1.347V1.346a1.346 1.346 0 10-2.692 0v2.692a1.346 1.346 0 001.346 1.347zm-7.074-.154c.617 1.657 3.123.73 2.53-.92l-.923-2.531a1.345 1.345 0 10-2.529.92l.922 2.531zm12.425.804a1.346 1.346 0 001.723-.804l.92-2.53a1.346 1.346 0 10-2.527-.92l-.922 2.53a1.346 1.346 0 00.806 1.724zm22.918 20.85a1.346 1.346 0 001.347-1.346v-2.692a1.346 1.346 0 10-2.693 0v2.692a1.346 1.346 0 001.346 1.346zm-7.074-.156c.617 1.659 3.123.731 2.53-.92l-.922-2.53a1.345 1.345 0 10-2.53.92l.922 2.53zm12.425.805a1.346 1.346 0 001.723-.805l.921-2.53a1.345 1.345 0 10-2.528-.92l-.922 2.53a1.346 1.346 0 00.806 1.725z" fill="#024EC9"/></svg>
